!!!OTL: "Jaegerlied" IN HITZE UND KAELT
!!!ARE: Europa, Mitteleuropa, Deutschland
!!!SCT: Z1283
!!!YEM: Copyright 1995, estate of Helmut Schaffrath.
**kern
*ICvox
*Ivox
*M3/8
*k[b-]
*F:
{8c
=1
8.f
16a
8g
=2
4a
8f
=3
8.a
16cc
8b-
=4
8cc
8r}
{8cc
=5
8.dd
16b-
8dd
=6
4cc
8a
=7
8.b-
16g
8cc
=8
4a}
{8a
=9
8g
8b-
8a
=10
8a
8g
8a
=11
8g
8b-
8a
=12
8a
8g}
{8cc
=13
8dd
8cc
8b-
=14
4cc
8cc
=15
8dd
16dd
16ff
8ee
=16
8ff
8r
8e
=17
4f}
==
!!!AGN: Jaeger - Lied
!!!ONB: ESAC (Essen Associative Code) Database: ZUCCAL
!!!AMT: simple triple
!!!AIN: vox
!!!EED: Helmut Schaffrath
!!!EEV: 1.0
*-
